X:1
T:Embraceable You
C:George Gershwin
M:4/4
L:1/4
Q:1/4=66
K:G
B | BAGE | G3 z | BAGB | d2 c2 | BAGE | G3 z | dcBA | G4 |
BAGE | G3 z | BAGB | d2 c2 | BAGE | G3 z | dcBA | G4 |]
